packages/axiom-materials/src/icon_svgs/replace.svg

<svg height="16" viewBox="0 0 16 16" width="16" xmlns="http://www.w3.org/2000/svg"><path d="m5 11h9v-9h-9zm6-7 1 1-2.5 2.5 1.5 1.5h-4v-4l1.5 1.5zm-9 1h2v7h7v2h-7-1-1z" fill-rule="evenodd"/></svg>

<?xml version="1.0" encoding="UTF-8"?>
<svg width="16px" height="16px" viewBox="0 0 16 16" version="1.1" xmlns="http://www.w3.org/2000/svg" xmlns:xlink="http://www.w3.org/1999/xlink">
    <!-- Generator: sketchtool 43.2 (39069) - http://www.bohemiancoding.com/sketch -->
    <title>replace</title>
    <desc>Created with sketchtool.</desc>
    <defs></defs>
    <g id="Page-1" stroke="none" stroke-width="1" fill="none" fill-rule="evenodd">
        <g id="replace" fill="#000000">
            <path d="M5,11 L14,11 L14,2 L5,2 L5,11 Z M11,4 L12,5 L9.5,7.5 L11,9 L7,9 L7,5 L8.5,6.5 L11,4 Z M2,5 L4,5 L4,12 L11,12 L11,14 L4,14 L3,14 L2,14 L2,5 Z" id="Mask"></path>
        </g>
    </g>
</svg>
